raw/symbols/movr.svg

<svg width="42" height="42" viewBox="0 0 42 42" fill="none" xmlns="http://www.w3.org/2000/svg">
<rect width="42" height="42" rx="21" fill="#030303"/>
<path d="M20.7749 7C17.591 7.00084 14.5379 8.26168 12.2866 10.5053C10.0353 12.749 8.77013 15.7918 8.76929 18.9649C8.77006 19.7207 8.84116 20.4748 8.98169 21.2175L10.5351 20.1591C13.2615 18.295 17.6839 18.295 20.4103 20.1591L22.0366 21.2713L22.9211 21.8747C25.378 23.5524 29.3598 23.5524 31.8135 21.8747L32.5363 21.3818C32.8941 19.643 32.8593 17.8466 32.4346 16.1228C32.0099 14.399 31.2058 12.7909 30.0806 11.4149C28.9555 10.0389 27.5374 8.92953 25.929 8.16705C24.3206 7.40458 22.5623 7.00809 20.7812 7.00632L20.7749 7Z" fill="#F2B705"/>
<path d="M27.5242 26.1542C25.8097 26.1869 24.1243 25.7095 22.6833 24.783L20.1756 23.0706C18.8107 22.2358 17.2405 21.794 15.6391 21.794C14.0376 21.794 12.4674 22.2358 11.1025 23.0706L9.48252 24.1764C9.40613 24.2285 9.32019 24.265 9.22961 24.284C9.13904 24.303 9.0456 24.304 8.95464 24.287C8.86368 24.27 8.77696 24.2352 8.69946 24.1848C8.62195 24.1344 8.55517 24.0693 8.50292 23.9932C8.45067 23.917 8.41399 23.8314 8.39495 23.7411C8.37592 23.6508 8.3749 23.5577 8.39198 23.4671C8.40905 23.3764 8.44388 23.29 8.49446 23.2127C8.54505 23.1355 8.6104 23.069 8.6868 23.0169L10.3068 21.9111C11.9075 20.9198 13.7545 20.3945 15.6391 20.3945C17.5236 20.3945 19.3706 20.9198 20.9714 21.9111L23.479 23.6235C24.6958 24.3671 26.0953 24.7607 27.5226 24.7607C28.9499 24.7607 30.3494 24.3671 31.5662 23.6235L32.5173 22.9758C32.5936 22.9237 32.6796 22.8872 32.7702 22.8682C32.8607 22.8492 32.9542 22.8482 33.0451 22.8652C33.1361 22.8823 33.2228 22.917 33.3003 22.9674C33.3778 23.0178 33.4446 23.0829 33.4968 23.1591C33.5491 23.2352 33.5858 23.3208 33.6048 23.4111C33.6239 23.5014 33.6249 23.5945 33.6078 23.6851C33.5907 23.7758 33.5559 23.8622 33.5053 23.9395C33.4547 24.0167 33.3894 24.0833 33.313 24.1353L32.3619 24.783C30.921 25.7071 29.2374 26.1843 27.5242 26.1542Z" fill="#53CBC8"/>
<path d="M15.588 31.1803V24.4191C15.5822 24.2767 15.5875 24.1341 15.6038 23.9925C15.6256 23.8065 15.715 23.6349 15.8553 23.5103C15.9955 23.3857 16.1768 23.3167 16.3647 23.3164C16.5465 23.3219 16.72 23.3939 16.852 23.5185C16.9841 23.6432 17.0657 23.8119 17.0811 23.9925C17.11 24.2273 17.1185 24.4641 17.1065 24.7002V38.1816C17.1103 38.2864 17.0931 38.3909 17.056 38.489C17.0189 38.5871 16.9625 38.6769 16.8902 38.753C16.8179 38.8292 16.7311 38.8902 16.6349 38.9326C16.5387 38.975 16.435 38.9979 16.3298 38.9999C16.2244 38.9941 16.1213 38.967 16.0268 38.9203C15.9322 38.8735 15.8481 38.8082 15.7797 38.7281C15.7112 38.6481 15.6598 38.555 15.6284 38.4545C15.5971 38.3541 15.5866 38.2484 15.5975 38.1437V33.6478L15.588 31.1803Z" fill="#53CBC8"/>
<path d="M14.1614 27.7761V31.1346C14.1614 31.7096 13.8443 32.0824 13.4164 32.0824C12.9884 32.0824 12.6492 31.6812 12.646 31.1346V24.4113C12.646 23.8236 12.9915 23.4255 13.4385 23.4634C13.8855 23.5013 14.1518 23.8394 14.155 24.4302C14.1614 25.536 14.1614 26.6545 14.1614 27.7761Z" fill="#53CBC8"/>
<path d="M18.5398 27.7691V25.4122C18.5398 24.8656 18.8314 24.5117 19.2658 24.5117C19.3754 24.5168 19.4828 24.544 19.5817 24.5915C19.6805 24.639 19.7687 24.706 19.8409 24.7883C19.9132 24.8706 19.968 24.9666 20.0021 25.0706C20.0361 25.1745 20.0488 25.2843 20.0393 25.3932C20.0541 26.9982 20.0541 28.6043 20.0393 30.2114C20.0393 30.758 19.7223 31.0897 19.2689 31.0834C18.8156 31.0771 18.5398 30.7422 18.5366 30.1829V27.7723L18.5398 27.7691Z" fill="#53CBC8"/>
<path d="M9.70776 28.2559V25.8958C9.70776 25.346 9.99942 24.9922 10.4337 24.9922C10.5434 24.9973 10.6508 25.0244 10.7496 25.072C10.8485 25.1195 10.9366 25.1864 11.0089 25.2687C11.0811 25.3511 11.1359 25.4471 11.17 25.551C11.2041 25.655 11.2168 25.7647 11.2073 25.8737C11.2221 27.4808 11.2221 29.0879 11.2073 30.695C11.2073 31.2416 10.8902 31.5702 10.4401 31.567C9.98991 31.5639 9.70776 31.2258 9.70459 30.6634V28.2559H9.70776Z" fill="#53CBC8"/>
<path d="M22.9651 26.9964C22.9651 26.5863 22.6315 26.2539 22.2201 26.2539C21.8086 26.2539 21.4751 26.5863 21.4751 26.9964V28.2791C21.4751 28.6892 21.8086 29.0216 22.2201 29.0216C22.6315 29.0216 22.9651 28.6892 22.9651 28.2791V26.9964Z" fill="#53CBC8"/>
<path d="M25.9141 28.1214C25.9141 27.7113 25.5805 27.3789 25.1691 27.3789C24.7576 27.3789 24.4241 27.7113 24.4241 28.1214V35.3218C24.4241 35.7318 24.7576 36.0642 25.1691 36.0642C25.5805 36.0642 25.9141 35.7318 25.9141 35.3218V28.1214Z" fill="#53CBC8"/>
<path d="M28.843 28.4007C28.843 27.9906 28.5095 27.6582 28.098 27.6582C27.6866 27.6582 27.353 27.9906 27.353 28.4007V34.5205C27.353 34.9306 27.6866 35.263 28.098 35.263C28.5095 35.263 28.843 34.9306 28.843 34.5205V28.4007Z" fill="#53CBC8"/>
<path d="M31.8132 27.6995C31.8132 27.2894 31.4797 26.957 31.0682 26.957C30.6568 26.957 30.3232 27.2894 30.3232 27.6995V30.3376C30.3232 30.7477 30.6568 31.0801 31.0682 31.0801C31.4797 31.0801 31.8132 30.7477 31.8132 30.3376V27.6995Z" fill="#53CBC8"/>
</svg>

<svg xmlns="http://www.w3.org/2000/svg" width="42" height="42" fill="none"><rect width="42" height="42" fill="#030303" rx="21"/><path fill="#F2B705" d="M20.775 7a12.03 12.03 0 0 0-8.488 3.505 11.948 11.948 0 0 0-3.305 10.713l1.553-1.059c2.726-1.864 7.149-1.864 9.875 0l1.627 1.112.884.604c2.457 1.677 6.439 1.677 8.893 0l.722-.493a11.93 11.93 0 0 0-2.455-9.967 12.005 12.005 0 0 0-4.152-3.248 12.046 12.046 0 0 0-5.148-1.16L20.775 7Z"/><path fill="#53CBC8" d="M27.524 26.154a8.647 8.647 0 0 1-4.84-1.371l-2.508-1.712a8.695 8.695 0 0 0-9.073 0l-1.62 1.105a.706.706 0 0 1-1.091-.709.702.702 0 0 1 .295-.45l1.62-1.106a10.128 10.128 0 0 1 10.664 0l2.508 1.712a7.755 7.755 0 0 0 8.087 0l.951-.647a.705.705 0 0 1 .988.963.703.703 0 0 1-.192.196l-.951.648a8.68 8.68 0 0 1-4.838 1.371Z"/><path fill="#53CBC8" d="M15.588 31.18v-6.76c-.006-.143 0-.286.016-.428a.764.764 0 0 1 .76-.676.743.743 0 0 1 .717.677c.029.234.038.471.026.707v13.482a.788.788 0 0 1-.777.818.78.78 0 0 1-.732-.856v-4.496l-.01-2.468ZM14.161 27.776v3.359c0 .575-.317.947-.745.947s-.767-.4-.77-.947V24.41c0-.587.345-.986.792-.948.447.038.714.376.717.967.006 1.106.006 2.224.006 3.346ZM18.54 27.77v-2.358c0-.546.291-.9.726-.9a.817.817 0 0 1 .736.559.811.811 0 0 1 .037.322c.015 1.605.015 3.211 0 4.818 0 .547-.317.879-.77.872-.453-.006-.73-.34-.732-.9v-2.41l.003-.004ZM9.708 28.256v-2.36c0-.55.291-.904.726-.904a.815.815 0 0 1 .773.882c.015 1.607.015 3.214 0 4.821 0 .547-.317.875-.767.872-.45-.003-.732-.341-.735-.904v-2.407h.003ZM22.965 26.996a.744.744 0 0 0-.745-.742.744.744 0 0 0-.745.742v1.283a.744.744 0 0 0 1.49 0v-1.283ZM25.914 28.121a.744.744 0 0 0-.745-.742.744.744 0 0 0-.745.742v7.2c0 .41.334.743.745.743a.744.744 0 0 0 .745-.742v-7.2ZM28.843 28.4a.744.744 0 0 0-.745-.742.744.744 0 0 0-.745.743v6.12c0 .41.334.742.745.742a.744.744 0 0 0 .745-.742V28.4ZM31.813 27.7a.744.744 0 0 0-.745-.743.744.744 0 0 0-.745.742v2.639c0 .41.334.742.745.742a.744.744 0 0 0 .745-.742v-2.639Z"/></svg>
